X:1
T:Title
L:1/8
M:6/8
K:F
V:1 treble nm="Grand Piano"
V:1
 z3 z2[Q:1/4=100] C | F2 G A2 B | A3 G2 G/A/ | B2 A B2 c |[M:5/8] A-A- A3 |[M:1/8] A | %6
[M:3/4] B2 G A2 F | G2 F E2 B | A2 G F2 E |[M:5/8] F-F- F3 |[M:1/8] A/B/ |[M:3/4] c2 B A2 c | %12
 B3 G2 G/A/ | B2 A G2 B |[M:5/8] A-A- A3 |[M:1/8] F/G/ |[M:3/4] A2 G F2 A | G3 D2 C | F2 G A2 G | %19
 F6 |] %20

